X: 437
T: Lord Byron's Delignt
P: Longways for as many as will
%R: reel
B: "The Compleat Country Dancing-Master" printed by John Walsh, London ca. 1740
S: 6: CCDM1 http://imslp.org/wiki/The_Compleat_Country_Dancing-Master_(Various) V.1 p.76 #110 (152)
Z: 2013 John Chambers <jc:trillian.mit.edu>
M: C|
L: 1/8
K: F
% - - - - - - - - - - - - - - - - - - - - - - - - -
A |\
(af) (fc) f2 (ba) | g2 (fe) c3 a | (af) (ge) (fa) (gb) | a2 (gf) f3 |]
f |\
(ge) (fg) a2 (gf) | (ge) (fd) ^c3 a | (bg) (af) (ge) (fd) |
d3 ^c d2 zb | (ba) (ag) (gc) za | (af) (fd) (dB) zg |
(ge) (ec) (cA) (Bc) | A2 (GF) F3 |]
% - - - - - - - - - - - - - - - - - - - - - - - - -
%%center NOTE: Only about half the dance description is legible; the following includes some guesses:
%%begintext align
%% The 1st Man turn the 2d Wo. with his right Hand, and
%% ??? Partner with his left .| The 1st Wo. do the same
%% :| The 1st Cu. take Hands and lead through the 2d Cu ??
%% ?? again, then cast off into the 2d Cu. Place,  and ???
%% and left with ?? Partners quite round, then the Figure
%% of 8 quite round .| Then right and left with your Partners
%% again, which brings the 1st Cu. into the 2d Cu. Place.
%%endtext
%%sep 1 8 500

%%sep 1 1 500
%%sep 1 1 500
